src/assets/outline/MedalStar.svg

<svg width="24" height="24" viewBox="0 0 24 24"  xmlns="http://www.w3.org/2000/svg">
<path d="M12 16.75C11.6 16.75 11.2 16.72 10.82 16.65C8.7 16.34 6.77 15.12 5.55 13.31C4.7 12.03 4.25 10.54 4.25 9C4.25 4.73 7.73 1.25 12 1.25C16.27 1.25 19.75 4.73 19.75 9C19.75 10.54 19.3 12.03 18.45 13.31C17.22 15.13 15.29 16.34 13.15 16.66C12.8 16.72 12.4 16.75 12 16.75ZM12 2.75C8.55 2.75 5.75 5.55 5.75 9C5.75 10.25 6.11 11.45 6.79 12.47C7.78 13.93 9.33 14.91 11.05 15.16C11.69 15.27 12.32 15.27 12.91 15.16C14.66 14.91 16.21 13.92 17.2 12.46C17.88 11.44 18.24 10.24 18.24 8.98999C18.25 5.54999 15.45 2.75 12 2.75Z" />
<path d="M6.46982 22.59C6.32982 22.59 6.19982 22.57 6.05982 22.54C5.40982 22.39 4.90982 21.89 4.75982 21.24L4.40982 19.77C4.38982 19.68 4.31982 19.61 4.21982 19.58L2.56982 19.19C1.94982 19.04 1.45982 18.58 1.28982 17.97C1.11982 17.36 1.28982 16.7 1.73982 16.25L5.63982 12.35C5.79982 12.19 6.01982 12.11 6.23982 12.13C6.45982 12.15 6.65982 12.27 6.78982 12.46C7.77982 13.92 9.32982 14.91 11.0598 15.16C11.6998 15.27 12.3298 15.27 12.9198 15.16C14.6698 14.91 16.2198 13.92 17.2098 12.46C17.3298 12.27 17.5398 12.15 17.7598 12.13C17.9798 12.11 18.1998 12.19 18.3598 12.35L22.2598 16.25C22.7098 16.7 22.8798 17.36 22.7098 17.97C22.5398 18.58 22.0398 19.05 21.4298 19.19L19.7798 19.58C19.6898 19.6 19.6198 19.67 19.5898 19.77L19.2398 21.24C19.0898 21.89 18.5898 22.39 17.9398 22.54C17.2898 22.7 16.6198 22.47 16.1998 21.96L11.9998 17.13L7.79982 21.97C7.45982 22.37 6.97982 22.59 6.46982 22.59ZM6.08982 14.03L2.79982 17.32C2.70982 17.41 2.71982 17.51 2.73982 17.57C2.74982 17.62 2.79982 17.72 2.91982 17.74L4.56982 18.13C5.21982 18.28 5.71982 18.78 5.86982 19.43L6.21982 20.9C6.24982 21.03 6.34982 21.07 6.40982 21.09C6.46982 21.1 6.56982 21.11 6.65982 21.01L10.4898 16.6C8.78982 16.27 7.22982 15.36 6.08982 14.03ZM13.5098 16.59L17.3398 20.99C17.4298 21.1 17.5398 21.1 17.5998 21.08C17.6598 21.07 17.7498 21.02 17.7898 20.89L18.1398 19.42C18.2898 18.77 18.7898 18.27 19.4398 18.12L21.0898 17.73C21.2098 17.7 21.2598 17.61 21.2698 17.56C21.2898 17.51 21.2998 17.4 21.2098 17.31L17.9198 14.02C16.7698 15.35 15.2198 16.26 13.5098 16.59Z" />
<path d="M13.8901 12.8903C13.6301 12.8903 13.3201 12.8203 12.9501 12.6003L12.0001 12.0302L11.0501 12.5902C10.1801 13.1102 9.61014 12.8102 9.40014 12.6602C9.19014 12.5102 8.74014 12.0603 8.97014 11.0703L9.21014 10.0403L8.41014 9.30023C7.97014 8.86023 7.81014 8.33025 7.96014 7.85025C8.11014 7.37025 8.55014 7.03024 9.17014 6.93024L10.2401 6.75024L10.7501 5.63025C11.0401 5.06025 11.4901 4.74023 12.0001 4.74023C12.5101 4.74023 12.9701 5.07026 13.2501 5.64026L13.8401 6.82025L14.8301 6.94025C15.4401 7.04025 15.8801 7.38023 16.0401 7.86023C16.1901 8.34023 16.0301 8.87024 15.5901 9.31024L14.7601 10.1403L15.0201 11.0703C15.2501 12.0603 14.8001 12.5102 14.5901 12.6602C14.4801 12.7502 14.2401 12.8903 13.8901 12.8903ZM9.61014 8.39026L10.3001 9.08023C10.6201 9.40023 10.7801 9.94025 10.6801 10.3802L10.4901 11.1802L11.2901 10.7102C11.7201 10.4602 12.3001 10.4602 12.7201 10.7102L13.5201 11.1802L13.3401 10.3802C13.2401 9.93025 13.3901 9.40023 13.7101 9.08023L14.4001 8.39026L13.5301 8.24023C13.1101 8.17023 12.6901 7.86026 12.5001 7.48026L12.0001 6.50024L11.5001 7.50024C11.3201 7.87024 10.9001 8.19025 10.4801 8.26025L9.61014 8.39026Z" />
</svg>

<?xml version="1.0" encoding="UTF-8"?>
<svg width="24" height="24" viewBox="0 0 24 24" xmlns="http://www.w3.org/2000/svg">
 <path d="m12 16.75c-0.4 0-0.8-0.03-1.18-0.1-2.12-0.31-4.05-1.53-5.27-3.34-0.85-1.28-1.3-2.77-1.3-4.31 0-4.27 3.48-7.75 7.75-7.75s7.75 3.48 7.75 7.75c0 1.54-0.45 3.03-1.3 4.31-1.23 1.82-3.16 3.03-5.3 3.35-0.35 0.06-0.75 0.09-1.15 0.09zm0-14c-3.45 0-6.25 2.8-6.25 6.25 0 1.25 0.36 2.45 1.04 3.47 0.99 1.46 2.54 2.44 4.26 2.69 0.64 0.11 1.27 0.11 1.86 0 1.75-0.25 3.3-1.24 4.29-2.7 0.68-1.02 1.04-2.22 1.04-3.47 0.01-3.44-2.79-6.24-6.24-6.24z"/>
 <path d="m6.4698 22.59c-0.14 0-0.27-0.02-0.41-0.05-0.65-0.15-1.15-0.65-1.3-1.3l-0.35-1.47c-0.02-0.09-0.09-0.16-0.19-0.19l-1.65-0.39c-0.62-0.15-1.11-0.61-1.28-1.22s0-1.27 0.45-1.72l3.9-3.9c0.16-0.16 0.38-0.24 0.6-0.22s0.42 0.14 0.55 0.33c0.99 1.46 2.54 2.45 4.27 2.7 0.64 0.11 1.27 0.11 1.86 0 1.75-0.25 3.3-1.24 4.29-2.7 0.12-0.19 0.33-0.31 0.55-0.33s0.44 0.06 0.6 0.22l3.9 3.9c0.45 0.45 0.62 1.11 0.45 1.72s-0.67 1.08-1.28 1.22l-1.65 0.39c-0.09 0.02-0.16 0.09-0.19 0.19l-0.35 1.47c-0.15 0.65-0.65 1.15-1.3 1.3-0.65 0.16-1.32-0.07-1.74-0.58l-4.2-4.83-4.2 4.84c-0.34 0.4-0.82 0.62-1.33 0.62zm-0.38-8.56-3.29 3.29c-0.09 0.09-0.08 0.19-0.06 0.25 0.01 0.05 0.06 0.15 0.18 0.17l1.65 0.39c0.65 0.15 1.15 0.65 1.3 1.3l0.35 1.47c0.03 0.13 0.13 0.17 0.19 0.19 0.06 0.01 0.16 0.02 0.25-0.08l3.83-4.41c-1.7-0.33-3.26-1.24-4.4-2.57zm7.42 2.56 3.83 4.4c0.09 0.11 0.2 0.11 0.26 0.09 0.06-0.01 0.15-0.06 0.19-0.19l0.35-1.47c0.15-0.65 0.65-1.15 1.3-1.3l1.65-0.39c0.12-0.03 0.17-0.12 0.18-0.17 0.02-0.05 0.03-0.16-0.06-0.25l-3.29-3.29c-1.15 1.33-2.7 2.24-4.41 2.57z"/>
 <path d="m13.89 12.89c-0.26 0-0.57-0.07-0.94-0.29l-0.95-0.5701-0.95 0.56c-0.87 0.52-1.44 0.22-1.65 0.07s-0.66-0.5999-0.43-1.5899l0.24-1.03-0.8-0.74007c-0.44-0.44-0.6-0.96998-0.45-1.45s0.59-0.82001 1.21-0.92001l1.07-0.18 0.51-1.12c0.29-0.57 0.74-0.89002 1.25-0.89002s0.97 0.33003 1.25 0.90003l0.59 1.18 0.99 0.12c0.61 0.1 1.05 0.43998 1.21 0.91998 0.15 0.48-0.01 1.01-0.45 1.45l-0.83 0.83006 0.26 0.93c0.23 0.99-0.22 1.4399-0.43 1.5899-0.11 0.09-0.35 0.2301-0.7 0.2301zm-4.28-4.5 0.68996 0.68997c0.32 0.32 0.48 0.86002 0.38 1.3l-0.19 0.8 0.8-0.47c0.43-0.25 1.01-0.25 1.43 0l0.8 0.47-0.18-0.8c-0.1-0.44995 0.05-0.97997 0.37-1.3l0.69-0.68997-0.87-0.15003c-0.42-0.07-0.84-0.37997-1.03-0.75997l-0.5-0.98002-0.5 1c-0.18 0.37-0.6 0.69001-1.02 0.76001l-0.86996 0.13001z"/>
</svg>
